SVG_Azure_All/Virtual Network Peering.svg

<?xml version="1.0" encoding="UTF-8" standalone="no"?>
<!-- Generated by Microsoft Visio, SVG Export Virtual Network Peering.svg Page-1 -->

<svg
   xmlns:dc="http://purl.org/dc/elements/1.1/"
   xmlns:cc="http://creativecommons.org/ns#"
   xmlns:rdf="http://www.w3.org/1999/02/22-rdf-syntax-ns#"
   xmlns:svg="http://www.w3.org/2000/svg"
   xmlns="http://www.w3.org/2000/svg"
   xmlns:sodipodi="http://sodipodi.sourceforge.net/DTD/sodipodi-0.dtd"
   xmlns:inkscape="http://www.inkscape.org/namespaces/inkscape"
   width="0.78757977in"
   height="0.66927963in"
   viewBox="0 0 56.705928 48.188149"
   xml:space="preserve"
   class="st6"
   version="1.1"
   id="svg77"
   sodipodi:docname="Virtual Network Peering.svg"
   style="font-size:12px;overflow:visible;color-interpolation-filters:sRGB;fill:none;fill-rule:evenodd;stroke-linecap:square;stroke-miterlimit:3"
   inkscape:version="0.92.5 (2060ec1f9f, 2020-04-08)"><metadata
   id="metadata81"><rdf:RDF><cc:Work
       rdf:about=""><dc:format>image/svg+xml</dc:format><dc:type
         rdf:resource="http://purl.org/dc/dcmitype/StillImage" /></cc:Work></rdf:RDF></metadata><sodipodi:namedview
   pagecolor="#ffffff"
   bordercolor="#666666"
   borderopacity="1"
   objecttolerance="10"
   gridtolerance="10"
   guidetolerance="10"
   inkscape:pageopacity="0"
   inkscape:pageshadow="2"
   inkscape:window-width="640"
   inkscape:window-height="480"
   id="namedview79"
   showgrid="false"
   inkscape:zoom="1.5239051"
   inkscape:cx="37.80603"
   inkscape:cy="32.078423"
   inkscape:window-x="0"
   inkscape:window-y="0"
   inkscape:window-maximized="0"
   inkscape:current-layer="svg77" />
	<style
   type="text/css"
   id="style2">
	<![CDATA[
		.st1 {fill:url(#grad0-6);stroke:none;stroke-linecap:butt;stroke-width:33.9443}
		.st2 {fill:#50e6ff;stroke:none;stroke-linecap:butt;stroke-width:33.9443}
		.st3 {fill:#1490df;stroke:none;stroke-linecap:butt;stroke-width:33.9443}
		.st4 {fill:url(#grad0-18);stroke:none;stroke-linecap:butt;stroke-width:33.9443}
		.st5 {fill:#ffffff;stroke:none;stroke-linecap:butt;stroke-width:33.9443}
		.st6 {fill:none;fill-rule:evenodd;font-size:12px;overflow:visible;stroke-linecap:square;stroke-miterlimit:3}
	]]>
	</style>

	<defs
   id="Patterns_And_Gradients">
		<linearGradient
   id="grad0-6"
   x1="-0.52331325"
   y1="222.82511"
   x2="14.561142"
   y2="222.82511"
   gradientTransform="scale(2.0293741,0.49276277)"
   gradientUnits="userSpaceOnUse">
			<stop
   offset="0"
   stop-color="#5e9624"
   stop-opacity="1"
   id="stop4" />
			<stop
   offset="0.24"
   stop-color="#6fb02a"
   stop-opacity="1"
   id="stop6" />
			<stop
   offset="0.5"
   stop-color="#7cc52f"
   stop-opacity="1"
   id="stop8" />
			<stop
   offset="0.755"
   stop-color="#83d232"
   stop-opacity="1"
   id="stop10" />
			<stop
   offset="1"
   stop-color="#86d633"
   stop-opacity="1"
   id="stop12" />
		</linearGradient>
		<linearGradient
   id="grad0-18"
   x1="0"
   y1="89.844621"
   x2="25.352742"
   y2="89.844621"
   gradientTransform="scale(0.99180594,1.0082618)"
   gradientUnits="userSpaceOnUse">
			<stop
   offset="0"
   stop-color="#005ba1"
   stop-opacity="1"
   id="stop15" />
			<stop
   offset="0.125"
   stop-color="#0f66ae"
   stop-opacity="1"
   id="stop17" />
			<stop
   offset="0.515"
   stop-color="#3a86d1"
   stop-opacity="1"
   id="stop19" />
			<stop
   offset="0.82"
   stop-color="#5499e7"
   stop-opacity="1"
   id="stop21" />
			<stop
   offset="1"
   stop-color="#5ea0ef"
   stop-opacity="1"
   id="stop23" />
		</linearGradient>
	</defs>
	<g
   id="g75"
   transform="translate(-33.936386,-33.945273)">
		<title
   id="title27">Page-1</title>
		<g
   id="group239-1"
   transform="translate(33.9443,-34.0157)">
			<title
   id="title29">Virtual Network Peering</title>
			<g
   id="group240-2">
				<title
   id="title31">g18</title>
				<g
   id="shape241-3"
   transform="translate(14.2159,-28.3228)">
					<title
   id="title33">path2</title>
					<path
   d="m 29.55,113.5 a 3.646,3.70649 0 1 1 -3.67,-3.7 3.646,3.70649 0 0 1 3.67,3.7 z m -15.32,-3.68 a 3.646,3.70649 -180 1 0 3.65,3.7 3.646,3.70649 -180 0 0 -3.65,-3.7 z m -11.65,0 a 3.646,3.70649 -180 1 0 3.65,3.71 3.646,3.70649 -180 0 0 -3.65,-3.69 z"
   class="st1"
   id="path35"
   inkscape:connector-curvature="0"
   style="fill:url(#grad0-6);stroke:none;stroke-width:33.94430161;stroke-linecap:butt" />
				</g>
				<g
   id="shape242-7"
   transform="translate(0.00500271,-13.6853)">
					<title
   id="title38">path4</title>
					<path
   d="m 19.46,113.73 -2.09,2.14 a 0.947359,0.963077 0 0 1 -1.34098,0 L 0.56,100.18 a 1.89472,1.92615 0 0 1 0,-2.72 l 2.08,-2.13 16.82,17.04 a 0.947359,0.963077 0 0 1 0,1.36323 z"
   class="st2"
   id="path40"
   inkscape:connector-curvature="0"
   style="fill:#50e6ff;stroke:none;stroke-width:33.94430161;stroke-linecap:butt" />
				</g>
				<g
   id="shape243-9"
   transform="translate(0,-27.5765)">
					<title
   id="title43">path6</title>
					<path
   d="m 17.07,95.82 2.09,2.12 a 0.947359,0.963077 0 0 1 0,1.36323 L 2.64,116.15 0.55,114.04 a 1.89472,1.92615 0 0 1 0,-2.73 L 15.73,95.83 a 0.947359,0.963077 0 0 1 1.33764,0 z"
   class="st3"
   id="path45"
   inkscape:connector-curvature="0"
   style="fill:#1490df;stroke:none;stroke-width:33.94430161;stroke-linecap:butt" />
				</g>
				<g
   id="shape244-11"
   transform="translate(36.9382,-13.6802)">
					<title
   id="title48">path8</title>
					<path
   d="m 17.09,95.32 2.09,2.14 a 1.89472,1.92615 0 0 1 0,2.72 L 3.71,115.87 a 0.947359,0.963077 0 0 1 -1.33764,0 L 0.28,113.73 a 0.947359,0.963077 0 0 1 0,-1.35984 z"
   class="st2"
   id="path50"
   inkscape:connector-curvature="0"
   style="fill:#50e6ff;stroke:none;stroke-width:33.94430161;stroke-linecap:butt" />
				</g>
				<g
   id="shape245-13"
   transform="translate(37.2401,-27.5765)">
					<title
   id="title53">path10</title>
					<path
   d="M 18.9,114.02 16.8,116.15 0.28,99.31 a 0.947359,0.963077 0 0 1 0,-1.36323 L 2.37,95.82 a 0.947359,0.963077 0 0 1 1.34098,0 L 18.9,111.3 a 1.89472,1.92615 0 0 1 0,2.73 z"
   class="st3"
   id="path55"
   inkscape:connector-curvature="0"
   style="fill:#1490df;stroke:none;stroke-width:33.94430161;stroke-linecap:butt" />
				</g>
				<g
   id="shape246-15"
   transform="translate(29.6424)">
					<title
   id="title58">circle12</title>
					<ellipse
   cx="12.5725"
   cy="103.368"
   rx="12.5725"
   ry="12.7811"
   class="st4"
   id="ellipse60"
   style="fill:url(#grad0-18);stroke:none;stroke-width:33.94430161;stroke-linecap:butt" />
				</g>
				<g
   id="shape247-19"
   transform="translate(32.7469,-10.0072)">
					<title
   id="title63">path14</title>
					<path
   d="M 8.23,106.68 H 4.5 a 4.67008,4.74756 -180 0 0 -0.73,9.4 4.9703,5.05276 0 0 1 0.06,-1.76 2.93214,2.98079 0 0 1 0.67,-5.91 h 3.72 a 2.95216,3.00114 0 0 1 0,6 H 7.19 a 2.20494,2.24153 -180 0 0 -0.21,0.95 2.12489,2.16014 -180 0 0 0.15,0.79 h 1.09 a 4.67008,4.74756 -180 0 0 0.2,-9.47 z"
   class="st5"
   id="path65"
   inkscape:connector-curvature="0"
   style="fill:#ffffff;stroke:none;stroke-width:33.94430161;stroke-linecap:butt" />
				</g>
				<g
   id="shape248-21"
   transform="translate(38.5053,-6.0667)">
					<title
   id="title68">path16</title>
					<path
   d="m 8.79,106.75 a 5.71751,5.81237 0 0 1 0.05,0.72 4.76681,4.8459 0 0 1 -0.1,1.04 2.92881,2.9774 0 0 1 -0.67,5.9 H 4.33 a 2.95216,3.00114 0 0 1 0,-6 h 1.03 a 2.18493,2.22118 -180 0 0 0.06,-1.73 H 4.34 a 4.67008,4.74756 -180 0 0 0,9.47 h 3.73 a 4.67008,4.74756 -180 0 0 0.73,-9.41 z"
   class="st5"
   id="path70"
   inkscape:connector-curvature="0"
   style="fill:#ffffff;stroke:none;stroke-width:33.94430161;stroke-linecap:butt" />
				</g>
			</g>
		</g>
	</g>
</svg>

<?xml version="1.0" encoding="UTF-8" standalone="no"?>
<!DOCTYPE svg PUBLIC "-//W3C//DTD SVG 1.1//EN" "http://www.w3.org/Graphics/SVG/1.1/DTD/svg11.dtd">
<!-- Generated by Microsoft Visio, SVG Export Virtual Network Peering.svg Page-1 -->
<svg xmlns="http://www.w3.org/2000/svg" xmlns:xlink="http://www.w3.org/1999/xlink" xmlns:ev="http://www.w3.org/2001/xml-events"
		width="1.7303in" height="1.61318in" viewBox="0 0 124.582 116.149" xml:space="preserve" color-interpolation-filters="sRGB"
		class="st6">
	<style type="text/css">
	<![CDATA[
		.st1 {fill:url(#grad0-6);stroke:none;stroke-linecap:butt;stroke-width:33.9443}
		.st2 {fill:#50e6ff;stroke:none;stroke-linecap:butt;stroke-width:33.9443}
		.st3 {fill:#1490df;stroke:none;stroke-linecap:butt;stroke-width:33.9443}
		.st4 {fill:url(#grad0-18);stroke:none;stroke-linecap:butt;stroke-width:33.9443}
		.st5 {fill:#ffffff;stroke:none;stroke-linecap:butt;stroke-width:33.9443}
		.st6 {fill:none;fill-rule:evenodd;font-size:12px;overflow:visible;stroke-linecap:square;stroke-miterlimit:3}
	]]>
	</style>

	<defs id="Patterns_And_Gradients">
		<linearGradient id="grad0-6" x1="0" y1="0" x2="1" y2="0" gradientTransform="rotate(-90 0.5 0.5)">
			<stop offset="0" stop-color="#5e9624" stop-opacity="1"/>
			<stop offset="0.24" stop-color="#6fb02a" stop-opacity="1"/>
			<stop offset="0.5" stop-color="#7cc52f" stop-opacity="1"/>
			<stop offset="0.755" stop-color="#83d232" stop-opacity="1"/>
			<stop offset="1" stop-color="#86d633" stop-opacity="1"/>
		</linearGradient>
		<linearGradient id="grad0-18" x1="0" y1="0" x2="1" y2="0" gradientTransform="rotate(-90 0.5 0.5)">
			<stop offset="0" stop-color="#005ba1" stop-opacity="1"/>
			<stop offset="0.125" stop-color="#0f66ae" stop-opacity="1"/>
			<stop offset="0.515" stop-color="#3a86d1" stop-opacity="1"/>
			<stop offset="0.82" stop-color="#5499e7" stop-opacity="1"/>
			<stop offset="1" stop-color="#5ea0ef" stop-opacity="1"/>
		</linearGradient>
	</defs>
	<g>
		<title>Page-1</title>
		<g id="group239-1" transform="translate(33.9443,-34.0157)">
			<title>Virtual Network Peering</title>
			<g id="group240-2">
				<title>g18</title>
				<g id="shape241-3" transform="translate(14.2159,-28.3228)">
					<title>path2</title>
					<path d="M29.55 113.5 A3.646 3.70649 0 1 1 25.88 109.8 A3.646 3.70649 0 0 1 29.55 113.5 ZM14.23 109.82 A3.646
								 3.70649 -180 1 0 17.88 113.52 A3.646 3.70649 -180 0 0 14.23 109.82 ZM2.58 109.82 A3.646 3.70649
								 -180 1 0 6.23 113.53 A3.646 3.70649 -180 0 0 2.58 109.84 L2.58 109.82 Z" class="st1"/>
				</g>
				<g id="shape242-7" transform="translate(0.00500271,-13.6853)">
					<title>path4</title>
					<path d="M19.46 113.73 L17.37 115.87 a0.947359 0.963077 0 0 1 -1.34098 0 L0.56 100.18 A1.89472 1.92615 0 0 1
								 0.56 97.46 L2.64 95.33 L19.46 112.37 a0.947359 0.963077 0 0 1 -3.55271E-15 1.36323 L19.46 113.73
								 Z" class="st2"/>
				</g>
				<g id="shape243-9" transform="translate(2.8777E-13,-27.5765)">
					<title>path6</title>
					<path d="M17.07 95.82 L19.16 97.94 a0.947359 0.963077 0 0 1 -2.84217E-14 1.36323 L2.64 116.15 L0.55 114.04 A1.89472
								 1.92615 0 0 1 0.55 111.31 L15.73 95.83 a0.947359 0.963077 0 0 1 1.33764 -2.84217E-14 L17.07 95.82
								 Z" class="st3"/>
				</g>
				<g id="shape244-11" transform="translate(36.9382,-13.6802)">
					<title>path8</title>
					<path d="M17.09 95.32 L19.18 97.46 A1.89472 1.92615 0 0 1 19.18 100.18 L3.71 115.87 a0.947359 0.963077 0 0 1
								 -1.33764 0 L0.28 113.73 a0.947359 0.963077 0 0 1 -9.54792E-15 -1.35984 L17.09 95.32 Z" class="st2"/>
				</g>
				<g id="shape245-13" transform="translate(37.2401,-27.5765)">
					<title>path10</title>
					<path d="M18.9 114.02 L16.8 116.15 L0.28 99.31 a0.947359 0.963077 0 0 1 -8.32667E-15 -1.36323 L2.37 95.82 a0.947359
								 0.963077 0 0 1 1.34098 -1.42109E-14 L18.9 111.3 A1.89472 1.92615 0 0 1 18.9 114.03 L18.9 114.02
								 Z" class="st3"/>
				</g>
				<g id="shape246-15" transform="translate(29.6424,-2.27374E-13)">
					<title>circle12</title>
					<ellipse cx="12.5725" cy="103.368" rx="12.5725" ry="12.7811" class="st4"/>
				</g>
				<g id="shape247-19" transform="translate(32.7469,-10.0072)">
					<title>path14</title>
					<path d="M8.23 106.68 L4.5 106.68 A4.67008 4.74756 -180 0 0 3.77 116.08 A4.9703 5.05276 0 0 1 3.83 114.32 A2.93214
								 2.98079 0 0 1 4.5 108.41 L8.22 108.41 A2.95216 3.00114 0 0 1 8.22 114.41 L7.19 114.41 A2.20494 2.24153
								 -180 0 0 6.98 115.36 A2.12489 2.16014 -180 0 0 7.13 116.15 L8.22 116.15 A4.67008 4.74756 -180 0
								 0 8.42 106.68 L8.23 106.68 Z" class="st5"/>
				</g>
				<g id="shape248-21" transform="translate(38.5053,-6.0667)">
					<title>path16</title>
					<path d="M8.79 106.75 A5.71751 5.81237 0 0 1 8.84 107.47 A4.76681 4.8459 0 0 1 8.74 108.51 A2.92881 2.9774 0
								 0 1 8.07 114.41 L4.33 114.41 A2.95216 3.00114 0 0 1 4.33 108.41 L5.36 108.41 A2.18493 2.22118 -180
								 0 0 5.42 106.68 L4.34 106.68 A4.67008 4.74756 -180 0 0 4.34 116.15 L8.07 116.15 A4.67008 4.74756
								 -180 0 0 8.8 106.74 L8.79 106.75 Z" class="st5"/>
				</g>
			</g>
		</g>
	</g>
</svg>
